X: 1
T: Murphy's
M: 2/4
L: 1/8
R: polka
K: Amaj
ec BA/B/|cA F2|EF AB|cB cf|
ec BA/B/|cA F2|EF AB|cA A2:|
ce a2|ce f2|ce fa|ec BA/B/|
ce a2|ce fa|ec BA/B/|cA A2:|
